packages/assets/application-icons/09.Pricetag.svg

<?xml version="1.0" encoding="UTF-8"?>
<svg width="24px" height="24px" viewBox="0 0 24 24" version="1.1" xmlns="http://www.w3.org/2000/svg" xmlns:xlink="http://www.w3.org/1999/xlink">
    <title>09.Pricetag</title>
    <g id="Page-1" stroke="none" stroke-width="1" fill="none" fill-rule="evenodd">
        <g id="Artboard" transform="translate(-134.000000, -135.000000)" fill="#000000" fill-rule="nonzero">
            <g id="09.Pricetag" transform="translate(134.000000, 135.000000)">
                <path d="M20.3952988,11.6350648 L12.3650912,3.60478491 C11.9778528,3.21754706 11.4526449,3 10.9050075,3 L6.09722554,3 C4.38667511,3 3,4.38667511 3,6.09722554 L3,10.9049455 C3,11.4525692 3.21756797,11.9777584 3.60480556,12.3649776 L11.6350132,20.3952575 C12.4413913,21.2015808 13.7487303,21.2015808 14.5551084,20.3952575 L20.3952988,14.5550671 C21.2016001,13.7487162 21.2016001,12.4414157 20.3952988,11.6350648 Z M7.70847454,7.7084126 C7.26557902,8.15132496 6.59948844,8.28382849 6.02080428,8.04413611 C5.44212011,7.80444373 5.06480635,7.23975959 5.06480635,6.61339883 C5.06480635,5.98703807 5.44212011,5.42235393 6.02080428,5.18266155 C6.59948844,4.94296917 7.26557902,5.0754727 7.70847454,5.51838506 C8.31321768,6.1231512 8.31321768,7.10364645 7.70847454,7.7084126 L7.70847454,7.7084126 Z M13.5821873,16.5772663 L13.5821873,17.7118213 L12.0335745,17.7118213 L12.0335745,16.6216909 C11.3952278,16.5464235 10.8015581,16.2559664 10.3503666,15.7981696 L10.1707276,15.6159391 L10.3514507,15.4347101 L11.120213,14.6638107 L11.3031971,14.4802485 L11.4859334,14.6640172 C11.8371631,14.9801079 12.302629,15.1383741 12.7737391,15.1018926 C13.5936677,15.1018926 13.5936677,14.7300604 13.5936677,14.6078748 C13.6052941,14.489547 13.5669614,14.371742 13.4879284,14.2829139 C13.3753226,14.1905095 13.234766,14.138921 13.0891193,14.136539 L12.351546,14.0338247 C11.8594881,13.9872639 11.3952064,13.7845983 11.0265116,13.4554282 C10.6745747,13.0847706 10.4894876,12.5863351 10.5142099,12.0758103 C10.4955062,11.1411321 11.1262215,10.3179627 12.0335745,10.0928323 L12.0335745,8.93634896 L13.5821873,8.93634896 L13.5821873,10.0305781 C14.1322158,10.1108939 14.6426804,10.3633343 15.0403714,10.7516948 L15.2299216,10.9351951 L15.042333,11.1206363 L14.2902027,11.8643834 L14.111689,12.0409253 L13.9303361,11.8673877 C13.6350826,11.6115428 13.2485747,11.4865944 12.859429,11.5211902 C12.4323216,11.5211902 12.1773684,11.7121238 12.1773684,12.0319123 C12.174676,12.1242551 12.209822,12.2136903 12.2746625,12.2794942 C12.3963075,12.3775162 12.5439095,12.4379161 12.6993748,12.4532899 L13.4172807,12.5554983 C13.8985802,12.5934179 14.3556908,12.7820449 14.7236697,13.0945807 C15.1063489,13.4881076 15.3059201,14.0244089 15.2735925,14.5723703 C15.2728126,15.5632289 14.5587617,16.4096245 13.5821873,16.5772663 Z" id="Pricetag"></path>
            </g>
        </g>
    </g>
</svg>

<svg width="24" height="24" viewBox="0 0 24 24" xmlns="http://www.w3.org/2000/svg"><path d="m20.395 11.635-8.03-8.03A2.065 2.065 0 0 0 10.905 3H6.097A3.097 3.097 0 0 0 3 6.097v4.808c0 .548.218 1.073.605 1.46l8.03 8.03a2.065 2.065 0 0 0 2.92 0l5.84-5.84a2.065 2.065 0 0 0 0-2.92ZM7.708 7.708a1.549 1.549 0 1 1-2.19-2.19 1.549 1.549 0 0 1 2.19 2.19Zm5.874 8.87v1.134h-1.548v-1.09a2.828 2.828 0 0 1-1.684-.824l-.18-.182.181-.181.77-.771.182-.184.183.184c.351.316.817.474 1.288.438.82 0 .82-.372.82-.494a.426.426 0 0 0-.106-.325.645.645 0 0 0-.399-.146l-.737-.103a2.317 2.317 0 0 1-1.325-.579 1.872 1.872 0 0 1-.513-1.38 2.002 2.002 0 0 1 1.52-1.982V8.936h1.548v1.095c.55.08 1.06.332 1.458.72l.19.184-.188.186-.752.743-.178.177-.182-.174a1.44 1.44 0 0 0-1.07-.346c-.428 0-.683.191-.683.51a.339.339 0 0 0 .098.248c.121.099.269.159.424.174l.718.102c.482.038.939.227 1.307.54.382.393.582.93.55 1.477-.001.991-.715 1.838-1.692 2.005Z" fill="#000" fill-rule="nonzero"/></svg>
